X: 435
T: Yixin xiaohuahua shuobuwan
L: 1/8
M: 2/4
K: D
B B d f [I:setbarnb 1]| 
A F E D | 
B2d f | 
e4 | 
B B d f | 
A F E D | 
B B d f | 
A4 |]

@@@ Tune index: 9309
